-----BEGIN PGP SIGNED MESSAGE-----
Hash: SHA256

test
-----BEGIN PGP SIGNATURE-----

wsy1BgEeCAAAACkFgmqMbpciIQbXoNfpWyp9oaCk8UjPcULkRLGnn38xEH8yc2Hn
WcOQtwAAAAAAQRAW/6rwP3j0LQ6kq8Ycqeh8EkiiRprCTZndOgL0r/wGc00cid0W
XXge5EAD+EtByTZ16l5RWZsdBfK5rVsA6wtIp0K6587C6vRE7FplvVD8Av3dLK2s
XSkjW0Ka9MKkgb6xOPPyKOng2CwtImMEV460mPoCmiWa0yHMYXP8NVbhH6EMwTfD
aZcvHj/474oN8a5GwfW4886hYLJgIvgeTZU6KDyP5XA9IFB/ZJrdX4On7wBFCfGR
9eO4xFf9+cCmiAaFEikNWzEkfTetW38VbbowTJUYKgCO2Y2QpsVr+RfAE41Vz5qS
pR61Ggl4jyRBzR8PwKRJjltReMZMXteC5V/MB558WS/1E+dROreONnhEQro/B0Nu
DSCYcAIMy/xOt/OymiqWsNdGsDIXBnrnBHx7L0Y+qSx9D+x/U0EYQurQX9nq1v2l
7oZJMyWjO3mLqHPAxveVXlJooZjsdsRVlKd3MrX4sH6UPnrJ0tsM5jkRzkaHd+9J
2WMaWa3jR02ZCE3++Z++Xtr1c2qP/2R7PEygqGPZM4qMI9nhrjVMPG4uhMF95FO1
iOa2XIyzDjLohrq7kWUU3em72ATvalZdPv5dmXmuBxlyiRWY3sAkR9UoMDtpaO6I
lH/t1kcJ2TGB1/CRp1Ozavm2hhIyujH7mPW8a0SzBKJKExkDeGFz3sJlRRhChDPz
VFnABaK726irSjUrE9hamA6692nYWBW+ZymyfOBkb8dvHOLpk6kyFOH2qEPaF9a6
l8roQ+pdk1zK+dk0lKEgUVfS8Ca9iBCuTn5f6t5n9NMRFshxYo7TwSa8HoPNFh9Y
4M4xZzFnYr70ZR8+cA/4tmfOpiZwlV1upRyXYX60fP++W0jBVs4c5kWTuGT/do4a
Y6Xm0/SQCviEKQvWB1pER578V+zONRNh741SSNJOK3Td8euFBRbVYUqHSL1utJn0
lzTTS0yU0xtbIKspTbCWeFvKOgOhIhwMZueViPic9T+OKxrZ/WAi/UbxoFpVs/Q9
oobjedyXdG5B8PRHVwjdAgJLh5I85hETzrbw0YW1L2BEvYwrK6Q10sik6IJmgiwH
AUq6f13IcGlWNzPL17hlCfbWV2aEFjW0K76OWw7K9riBUDX0HtLnZl76XWEPU9Xw
tYmV74KIji+6NEil/X6qwDQxpBOCtvhIcZu4fwBTXloKY/e6G3iU+unM8JcAspGl
QUz8U3DwbYzpxfYqlUOriO5IAQgvsqFOWbObgMdg3zdffDGkICDayH7oAnglzP2Q
GF0Pns3N/FJAzsddXBkjtCM2Zr40LYkJ23a+3BUWXg6iBf/RxjhLd/2EnS6Z3qxl
pl0Sfp1wZpC4uH+LbkUE0cEDuMy9oTxYagt1YvC/a9t5KV/Kc69hIsZv2fAaXjXD
23/lJJX7KfZn4BFIrUgVsHJNCp1x1Zgo9MUgutMCCbGRBzAa8AHqnZ6X1j9U6jHQ
m/BZuK2ei4FVJSmtJYKB9ZUfChI4yybMsk7pDgM6AtAtFSefvbpb6hysqvDmR8+D
AxkyPDg2NY/LVbr9LODeS9eML4HnMILcUG4BHmIFsVmRo8XQGUBKjCky26eLemn6
H0kxpL2Q5MXElg8bgticTVhY25pdKdFILdqrD7HghCf2V1mt5SnkjBDR6lmSaVF8
U2EjMcfkAuu+kHbdwEYDuymdbqwfuBXNyU0+dYp/wnx6HANY0ABjaWpZenNgpHc3
RWePnHewxzJOAaorS79pdUyGsYsKtPet4lsp93dbJaK//nfsVceYrR7/TbcG5J8K
aHjV/emNqC8udU4pnhfKxpcU+b0kOTbm/ZEjZlseI3u3TvsozMvzqMzgPZS5uTBp
HU+stNds1NlS3Gwd5ati1/68kcF0lBdT6WbVkTtkncc2HchY9otMAbs0CXYC0ypo
i5s3o2gJrs86MIOW+91dJYUTU0NwvMOzxLJ7WSiKaEzFkV3exKLHZ2bFyfsOaOiD
e4NsxCFpfw1Te66WcCqnKIqarOc2Uy3xtPBhx2eQyefk++rc687yazu6XV+4Knxh
Ij0khXX+vHHd8/QGpyUKDzJRMnKQsS9wJEh36nZJXUoFoEYtJCWkYyYBJF/tvezL
faAKbuTA/k4koAJsC7tnS3zby4vXSPIT4sknzvA55xtoBxcwyXayDswTpOMLEkJW
R59wUtBf8TE6vHozr5ari3XzheKREQA/MvFdwreSanzjPZWZcek71ZKi4Tq70Pfg
9hGXdsJk764u3hJ7fv0R/PvdO0BJgZ0DuHDrZXXOejEVKLp8nNyG7g++OYiBcomp
VJ4bZpz/S6lVovl0PHzw8iEgLwZWbJeQqwErARjaCMCSg1u7Whvsv87NDnps3IqB
Q6ALpxX461kjjhdIwsqBjAm0EFUuWET/FdOGiijJyVG2L/OPTXCi3LemvaxNLBL3
cdlcGmk/rlj6xVgUk6+aC9gstcLTtIOXt0INN8n7F8Yu+t4GnLPF45ogYRAbb7Oe
mYYlBRXoWWDwxzEuHzUNAAHLWnPMb0Yd71+cusfnnyPsafSeL7W2VcisU+4SfOhZ
zwcucCiS+93yMFoAKlsBAgIjWjQIHFdoWo/zBKBtpvRQHkG8A2PEyq/uWkSsFKJD
A3qA/CGxyzzQBijbmXd8A+apxA6PzYvWHGt3E0Oq0qr8wnwhHsc7XcYtph5swzt1
mJw44HWa/8ZLM6Omshw8Hpwk4hJQEZ1oteF89RLh8Qev5eVKCr/sDq9ZWTAhwACV
kC9wKMSZIF+AG/8HXhPeOhZ6NQs08jhOBPWq2Em0WtBxHwf/2GPN63BffTFIBI5J
vs9A0MJ+NoEOJAygpy3DAQ9+7HyEfwAzFi8mcDd+Yjg79vm6Ua5Q0wBXezNwlLCE
D5qYfPVtfZpRqQBEh19qz7DJO81YoUCp7nbDwb0+3tYF5obctpRvUj711liz20zQ
oSpitr6/7Xyl7V2c3qzKCLKRAUpTnv1MFkZlmCWNSjYYPmk7UN2oaOUg93QjD8cq
KH8tKOqiHqtERrAJKbJhXQd2KiKRQt3Gh8rM65tnH242ATQbBktQI3ETGHaHPxDT
DpZZQkcFGoRycbI0KdqRx53qMRNXbEYh4sQ8tinJzpuukBeO6qA4j0FkeNYi7R5W
/t2/weiwLcDrXJxT/zNs+9kR+8jFQhc5FP175xYrawxwivYl3kB8ApxK8LirhsTU
0dJjO90qDzvJTVXCUvneci1vy1AqgQtfLi8q1OTBuhTzZK6DSZEylreGXkAqDbvX
R2xEG8NLElfKOQXxzSRG5qAba6CdH2R/O3Y3DsqqiSn2j9XFZS2HnYGSihUcVnx5
sqKRv/nQqjkUjarObt6YpWBSDmaPSHfLtbntGu/mBzfdubPJbsc47bZuAvttxV3F
pdki9Ypfi+NkL+Apnuznn2Gci/8A5XipjYoUOI6EMqksBphAH3uVqeNd37ykhbRI
tazwCair/ofjNB830sI2ljU1e6dvATWhlBY2OfLFTsmGxihWfXwW+d3pI3z6DsPN
UYc4vuyGenWhDqvMSJ9oW7KmV84Z2Ss1TTTpfKIdoWR7Ad3J7fJTVXpM1FpcOukR
dvE4Mv+INaBAFGrLu8awFZ8JD8n0EeDfnsC0H5J0LHyAa4itoS/2/FmkCTklFsWq
j+sRNx0dR7R+C5PRAjrBBd0NqfRuxfGxS82y2PdOR8C9Eid3zWLhD6gf4S2swLBR
Q9tW/sOBaGJzFMA8aPbsnALnZyrThNXggAM//iLrLvOsG/b+Ckx84xHCF07FWHiC
4wOJ/8mIhVBBrGSNUKmXQTiD9lu3n2fXgolfoaeCHqDggl7+panDENLJLweQu1x3
XBym+hrDe/PyjufowezreliwqvQIUubnrx4nxbDoqHuLgvCBPB2Uo9A3i9oEzd5C
k61/yp/oMgi18bHJ7DLAo1DCLJdfjoSd1Y7erR3v8MycbMRBO/0/tO7VxEnQ7ArI
AUNIYvQZYJTZxKEWFWt/rcObs2sgQDoJR/u+AW+7air1Wf7cHCrmnPbhfJTNooi1
t4VvChSuZyBCSMc/9nuRVJkyDMOQYzZwMEoVthr1hh31fENIPM9wgyFRzbcuIr5l
vBJEuqemt757wzNqQxHJXlKazCyfAd6Gc5KZ++9B8YlEqc37HbXuQVRIn4cUoG24
B2VkucZM5KIKs2vCqjDm2qv522fshCKXrQ0tpW3rwdXsIk0q9KuFTMpkYDAcGfhf
jIBhlPD4QxmhaMWHGJv6AlcRlkOLtVY85CynGoamy4bSr8yOLUJLIRp2QIyn4KRa
8+jriCZi8mALG2aq8Pt7JsqDawF5A7qEKus3s4qRRqdmsCof5czWw6akT+kV3FeD
FVZQj53HtZTMDqddTvI93lA9kIJNpwTUz5J7VCxw8UOCn/UBfsMrt5HYIXnG/T/t
/E2xEgHPrSR7hjKoKHciFwsqTFFvB8p4i/UrHDM8PWqKi6OnxuIyUpXAxPJShIes
7u8cUXuQkZSswdP19jE0X6Cn8fX+o6QAAAAAAAAAAAAAAAsRFyIqLA==
=YgHg
-----END PGP SIGNATURE-----
