-----BEGIN PGP SIGNED MESSAGE-----

hello from sequoia
-----BEGIN PGP SIGNATURE-----

wszFBgEeCgAAACkFgmqMcxQiIQZrM9BqX1clrfBxCvhj3fOHukO1nRfuy8S92ZIr
FlPsWwAAAADyXyCYDqVc3H5ZBWkrfXsvaKYpXT4dYigOv0MHgIDm/+czvT1XJoA4
rhfXBntjeFjlEMROGXMhNlZqRnXUKyqHbjBieKhy5n376+BNkWstSiqYZgZFnhBN
b8T/gTagVR/S5AJLXjEX5XPN3EpPIyB/oh7mGrZVEIsD5SY2/vhzHgKHe5UU+DR9
Jj2yHODL7crUAH2pFUbCUgegAZz2Gu79wGscNzitoDgDe/wsLEGBIFt0ooyLppPk
RAMmKMxvju3A5Dhenc4wAf2fS6RVd0m8Uiee0rPhBrXiUwuhTs5r/Mv2dMHW2mp+
4i5lcygMTPABO7MgWiVAPQfvXxrCm7atMIvR/gFphkmMPphhIgthjhucwg4zAA2e
55Yv1u1Wbewx3iZLz5VFPykUWlUdAnWnU77uP1ZendPoCpxLoMt959a2xBCCnCgB
Zuol0WY4F9ED6QeAHZig0sMjDv7DfaO4gmhyvg9A+u7A/gQiTRmVatYsqeM/mYQB
p1bQKkS1qtVsvpZ95ntt5/x6Q66VefBuWK/YUXCrvT3YKZY3Z8Da6emZLsH/y50s
rGbawdHNgb0/fLXzs5XYuxjfIvop+oguqLu4Zmt1Ricp4RxtpGwQw9FEIewTv731
VD9Uh1oV1PrMJjKurmkc4K3eaT+zDopPZ+9/NLQYHjpeR6OttAI7rPMCVPPj1cH5
I/eQkBQtlIrthwGkcnbRG05Lwjt334hQzaAN+pupcsn7U3ADMQ3uYUzKL739jExX
tRpKsXMxzJG7JmBaRPdQ4XQmX3U7kbH5C9kOVesZg/fZSKp0PcWiHd6Rc1HbSAWa
oBL7QIJsg1vVouK3XcLGa6twoocfFFOkkn74hd3rCiIixKagSYAirD3vgirKWMwp
gJioUUOJuUePR8a0o5X38M43vnWE4fz18vWvNyGfoIIizNI/u4DsCvEFSqCrNZXv
4jhmIBHmjN1ZUD+20zdFUHvYAteKpqCXrN5VAJldRzc6QK3vyHE1jn6gNkdftMW5
16MTNMoURiyi5zTqDf5mUkV0kiU08quwMz0N1eKduiA2F1dQgOexPmjhPUdFa4EJ
0jeIF+aw4duZocmUtYLckqgREAjTx0oZOjqYLb1KoURliVjzuiIwDFKuERMoYaFT
OD6KVn53Cl7H+yTqCB7QLVMBB1Y/Efhd8+KUUSIVEDKj7D8tplvU/EEFc0hYlLTz
1oOP+bqA5TGUmq/I8eaN4TB9FqGCn2bLjzuGRonCxqvSHsG0Uk2dOHAIU65YtRhF
xK9thL0r+I3Ai/cOohLZ3BBHsFOG36vOWrfjk3mtdMPymEhI/IRMmqaDlA3d7KRR
WBKuH+jGxW7a5qAR91FtfXoDfFPV13UG+1mzkebBGjCB7wYS9kuh9uqZqoDO/Uib
1cYgtgTdR/maDszQhyT6EA/OXAyKkm0XZCdvQm3r+2oQ+Qe/F60pWjM9bxtXJq47
tzer1EDCkyAMA2IlFhKAknScB3RNN+2ygoCWe053t3azcn85fW/fDbVmIJJTN6Hm
lCgaWP2xVCp+uy1+dA9HYhZcG0RiFeB3OeRwEoTOM8PQeZUuw3joTa9vgU3HZRXn
XVQqPYNoomAWRxkpg68ezZdCBliqBT02DEQtYn8XqPkMJ30+ozIEIAshorFzNtbm
jvgob6xXBA5i9lvxQ6kOca3U8ev9e2lzOHnXT9YOzjO1fyN6iAO3cqjpALFrU3te
CKsPzFaMLDadq3M+wGC2mo2FUedZaBN17ogLF5WefNfNyi93tC48nNtKGN9Hbe7X
MHfryWojIJsJ7Y8rJyMn+LtqFMBZcNjJB7b3O04HCpNxVCWNJRsSee4R+dEvlrGY
3iJ1rxlNG9EOHUmZ/sJpJKT21FVfFHKOre96CsBlhjYBgM9X9IGq16l+93oN4GPU
hV2mQeDjupOnPCgLp5cMGjALcseIeT3WdgxFjjClpnkcOmg3Fqi5p4pvESTsPsru
fWhE2EJRnFiJkHMOreB564JSCKgDk1Y5zP/pWM3cnz1eG4iy/FrSNt3Q5CS8iakk
Hd8zuXaXJZxAuRc7dnCKJ+0Zm/82/pYXWxg1SpZO86KOxgc1S1jgbgnyrDlfXJva
+UASGA0gS+gtqzdEQ05gY8O4z+z3G8/x7/GvcAVMHnvNTUm0yKAVSlcf6IRfi1HJ
RvPVXLBhFvvA6brnM2tPJ0njReKzKUN4iL1KL/aCWL9PBUQHQW9raWAGq8cArY6+
VGB8BWCE6HoHvzAWFl92WQBMUASVFSWdVQ0u0/Db4I6JSZkVUeUDlB3ALoC7smoV
I7FVWH+GI7XqHQgsL3irqOG6eLvMKz2U4Ea6ijJV72ld9Yh3cOrhW+9cZ49iUp9R
F6BOLG3D9EDGlMjF3g+rWVv0lOeR68ZsftXBe1LlXxa62ZBiopbTeJFV24LakujY
f4qlg/cQtaL9Oba6T6RDZ7BJU1g8oo3y7aI3cSohOwsxByhS7jIwODvexTq1RqAt
mlBigQ1kBtc5mBSo3wFHFnVPIRrbaSvHNRWb25awmY1vMQin2ScsJAtf4amsJqGA
ajlzm3SXdbqUYXP47tS3N0ZJ0bxeh/88JZFJ+piyC9nvxhe60b6ldjIC96FkiwLK
3alaWMT9TuhA1Sc/T1u3c6jQyEM9t1/lxArasKjQp51HNMMZ+f96XHAaFYE49RkS
ykzPl/F3dDF0Hh8bkgcZhIeF4aUVuIwsFyfcIu6C2RWWtcKMEAo/9i+a86yHe12k
2zcosXfnuTN7LVbBTpLTer1nKs/JKCwtDN1mRXzmMpATM5bF0RCbjLy1YsJITkJc
yfw+KSKcxjga3Zc2476oGisXVrF2clQk7diyEleKXW0Cpo3x5Iji0iftWHPvRpW/
0nCiBwbtQ7mQKynI8O+tgKR+zWuYXOsWu1BWjOOX7Ms12YKgNfhwbcLchqrd6vkd
tf4bbUOrQZOcPr44x/GNcQVffiV5cr4eit9QwM8Ema+jF+OUiCNyFd1CA9dfzhmA
sAWMNYs7YkBCeDsNd5mhiKTBuISPWUbqt2eKGO8KtJgirUnDIf2V7Sq5wYJI6s7o
54FPx/pleYm06ZBfzILp3gx9Y5fq07npl5tvle34iQALF01vnk0Un5wpXsZwp3nh
e8RBeVmesvBXzOZCaLXbjO7VanqS3zVzI0+gMZjE3OMjUsBUeic1CQ0TJdpFi+6w
6dBigeg2322lqb6ShiiL2hA+slmR22nkaL0BfaDfP6kqTHZ8RX78tNzhDvt/CArt
ZhxZNL64nEMoVMzpdpwm7yq1nHPgPDordDeP4IG7oWVzAyzuFLnGQJ9uvkFRkUY6
c5hS5YMnBajK+JSTsNuXOS//J+lv2LXc18hedbrQ0GTaBfC2dPk1GzA0gLSf5Dvm
113MZyJuOykf3yhWAQZQxYcu14u+e9yuz343exqkHOboPiy8gBCCNspqmAQ/1qvE
lstDSzzLxLRUVin3uLrXYZGtdLeNXlUu/KtURWAIUeCcfiHNrFCSQc+ehgU5zsOO
9XBWqhES7ApSJk97tBmZXq94euuL5axM5N2HiZANtxnNH1o6FmX5qGraxY3V2Ezx
zIBQ8LtaSev9Uk/I0ZGXtZo36khfrFkDsOJbMFDWMlU7egWf1JEO5F15sjH+D7/7
IpqMQXCRPVJwPIRAhtsK/vIDvXEGoYoT2hDqpUtyBZYpTYx+Bi/mzehEKRiBF1MS
jR5oCxPXirh08w26JciWSYcj2ZfsWIA3cBV3bKkx+Z+zpAu2v12lK8xP3ngqPG7R
pvwdAP02maVe+qHXPkviml4pX1FuwTt1EO3dmrH/Q+41mfFrsAxVtJcbNTwuODXd
bZwQHvLnDrkDjl7RWminTSvQMkyTg9Ce5wTp9O9zrdaCpRViTw+tG3iEjPZ2/WKr
jxCLXMrFhyga/rOXni6bIaNJcQeLTXvY6wEnJjATecNCVFq848L+h2O3gYI1LFZ6
UP/zn7HntTHXM5zY0OObXSj9PVhKMQa8b69Bo8B7S3Pg6aTwlKMB7CBLmtGk7BEg
F9I+Y60GHwjSNXUNwiSZzjaZMoIAtgrmfh58hvgPA7FgN/nAKbYrJZ9kG5et5beZ
IQDchpCqOSIJwMiy+tkzzoCO/TBppxsRKgoaAcX2nJqjCL5cGBcJRAPV1fd8DUSd
hYVpnDD8cv3bu2QDlyh0jDDWr5yTMviF0hO8EWAjTGUTKDbcsZ6bjslxDPFlrXgs
abZ/d71PUg4mTVbdSd1HBlWK+aPR8qS1gAmivvk/iKhb96UvOxUhdrMb1xaEd8SJ
GGXZ/TSLtoiKxh0ykTmWSLKU/uNEG5koODP4ZW6EFHPR4yxDMA631dy6kshmteLT
scSORqVAmGTnZ3J8rXg/P5L+MCjJOBD4g9Ab30jdA0kis79umP+FOMPJSwZg4omx
cAz6OOxdNhP1VJmUsX0jnkmY7zITiaRWt2BW0JTCDfx3w2b++fNVkzonzxhLXHqC
r+77mQsTHB89RFNVcHqu+RFJXWWRm/gPHSRGW2x2d6LD4PAAAAAAAAAAAAAAAAAA
AAAICQ0VHCg=
=0qzK
-----END PGP SIGNATURE-----
